!!!OTL: 629. Sehnsucht nach dem Fruehling.
!!!COM: W. A. Mozart
!!!ODT: 1791
!!!ARE: Europa, Mitteleuropa, Deutschland
!!!SCT: B0629
!!!TXL: @@DE
!!!YEM: Copyright 1995, estate of Helmut Schaffrath.
**kern	**text
*ICvox	*
*Ivox	*
*clefG2	*
*M6/8	*
*k[b-]	*
*F:	*
!LO:TX:a:t=Munter.	!
{8f	Komm',
=1	=1
4f	lie-
8a	-ber
4cc	Mai,
8ff	und
=2	=2
4.cc	ma-
4a}	-che
{8f	die
=3	=3
4b-	Bäu-
8b-	-me
8b-L	wie-
8ccJ	.
8b-	-der
=4	=4
4a	grün,
8r	.
4r}	.
{8f	und
=5	=5
4f	laſſ'
8a	uns
4cc	an
8ff	dem
=6	=6
4.cc	Ba-
4a}	-che
{8f	die
=7	=7
4g	klei-
8g	-nen
8gL	Veil-
8aJ	.
8g	-chen
=8	=8
4f	blühn!
8r	.
4r}	.
{8a	Wie
=9	=9
4b-	möchten
8a	.
8gL	wir
8aJ	.
8b-	ſo
=10	=10
4.cc	ger-
8a	-ne
8r}	.
{8ff	ein
=11	=11
8ffL	Veil-
8eeJ	.
8dd	-chen
8ddL	wie-
8ccJ	.
8bn	-der
=12	=12
4cc	ſehn,
8r	.
4r}	.
{8f	ach,
=13	=13
4f	lie-
8a	-ber
4cc	Mai,
8ff	wie
=14	=14
(4ff	ger-
8dd)	.
4b-}	-ne
{8dd	ein-
=15	=15
8ccL	-mal
8ddJ	.
8cc	ſpa-
8b-L	-ʒi-
8aJ	.
8g	-ren
=16	=16
4f	gehn.
8r	.
4r}	.
==	==
!!!AGN: Kinder -, Jahreszeiten - Lied, Fruehling
!!!GTL: Kinderlieder
!!!ONB: ESAC (Essen Associative Code) Database: BOEHME
!!!AMT: compound duple
!!!AIN: vox
!!!EED: Helmut Schaffrath
!!!EEV: 1.0
!!@@COMMENT:"Gedicht von Chriſt. A. Overbeck. 1775. Mit der Ueberſchrift "Fritʒchen an den Mai".
!!Ʒuerſt im Voſſ. (Lauenburgiſchen) Muſenalmanach für 1776, S. 49 mit Ʒ unterʒeichnet. - Jn
!!Kinderliederheften ſind blos die 1. und 5. Str. als beſte ausgewählt, von L. Erk ſeit 1824 ſchul-
!!mäßig ſo hergeſtellt. Moʒarts Kompoſition mit Clavierbegl. (1791) iſt in vielen Sammlungen gedruckt (ſ. Finks Hausſchatʒ)."
!!@@END:
!!!Text: Ch. A. Overbeck.
!!!URL-scan: https://archive.org/details/BoehmeVtLieder1895/page/n495/mode/2up
!!!ENC: Anna Maria Matuszewska
!!!EEV: 2024/15/07
*-	*-
